X: 16
T: Glen Of Aherlow, The
C: Sean Ryan
Z: Yoann
S: https://thesession.org/tunes/496#setting51796
R: reel
M: 4/4
L: 1/8
K: Edor
|:B2AF BFAF|EDEF EDB,2|B2AF BFAF|DFAF FEE2|
B2AF BFAF|EDEF EDB,A,|B,EE2 DEFA|dBAF FEE2:|
|:eBB2 egfe|d2fd Adfd|eBB2 egfe|dBAF FEE2|
eBB2 egfe|d2fd Adfd|B2Bd e2fe|dBAF FEE2:|

